Sources/FrostedUI/Resources/Icons.xcassets/sparkleRectangle12.imageset/sparkle-rectangle-12.svg

<svg width="12" height="12" viewBox="0 0 12 12" fill="none" xmlns="http://www.w3.org/2000/svg" data-fui-icon="true">
  <path
    d="M5.25 2C5.66421 2 6 2.33579 6 2.75C6 3.16421 5.66421 3.5 5.25 3.5H1.99023C1.71961 3.5 1.5 3.71961 1.5 3.99023V10.0098C1.5 10.2804 1.71961 10.5 1.99023 10.5H7.50977C7.78039 10.5 8 10.2804 8 10.0098V7.75C8 7.33579 8.33579 7 8.75 7C9.16421 7 9.5 7.33579 9.5 7.75V10.0098C9.5 11.1088 8.60881 12 7.50977 12H1.99023C0.891188 12 0 11.1088 0 10.0098V3.99023C0 2.89119 0.891188 2 1.99023 2H5.25ZM9.5 1C9.91421 1 10.25 1.33579 10.25 1.75C10.25 2.09974 10.3649 2.33759 10.5137 2.48633C10.6624 2.63506 10.9003 2.75 11.25 2.75C11.6642 2.75 12 3.08579 12 3.5C12 3.91421 11.6642 4.25 11.25 4.25C10.9003 4.25 10.6624 4.36494 10.5137 4.51367C10.3649 4.66241 10.25 4.90026 10.25 5.25C10.25 5.66421 9.91421 6 9.5 6C9.08579 6 8.75 5.66421 8.75 5.25C8.75 4.90026 8.63506 4.66241 8.48633 4.51367C8.33759 4.36494 8.09974 4.25 7.75 4.25C7.33579 4.25 7 3.91421 7 3.5C7 3.08579 7.33579 2.75 7.75 2.75C8.09974 2.75 8.33759 2.63506 8.48633 2.48633C8.63506 2.33759 8.75 2.09974 8.75 1.75C8.75 1.33579 9.08579 1 9.5 1Z"
    fill="currentColor"
  />
</svg>

<svg xmlns="http://www.w3.org/2000/svg" width="12" height="12" fill="none" data-fui-icon="true" viewBox="0 0 12 12"><path fill="currentColor" d="M5.25 2a.75.75 0 0 1 0 1.5H1.99a.49.49 0 0 0-.49.49v6.02c0 .27.22.49.49.49h5.52c.27 0 .49-.22.49-.49V7.75a.75.75 0 0 1 1.5 0v2.26A1.99 1.99 0 0 1 7.51 12H1.99A1.99 1.99 0 0 1 0 10.01V3.99A1.99 1.99 0 0 1 1.99 2zM9.5 1a.75.75 0 0 1 .75.75c0 .35.115.588.264.736.148.15.386.264.736.264a.75.75 0 0 1 0 1.5c-.35 0-.588.115-.736.264-.15.148-.264.386-.264.736a.75.75 0 0 1-1.5 0c0-.35-.115-.588-.264-.736-.148-.15-.386-.264-.736-.264a.75.75 0 0 1 0-1.5c.35 0 .588-.115.736-.264.15-.148.264-.386.264-.736A.75.75 0 0 1 9.5 1"/></svg>
